X:1
T:I was glad - Purcell
T:#
%%score [ 1 2 3 ] 4
L:1/8
Q:1/4=90
M:3/4
K:G
V:1 treble nm="Alto" snm="A"
V:2 treble nm="Tenor" snm="T"
V:3 treble nm="Bass" snm="B"
V:4 bass nm="Midi_43"
V:1
"^Psalm 122:1-8""^I was glad""^Henry Purcell\n(1659-95)" z2 G,2 D2 | (C/B,C<B,A,/ G,2) | z2 D2 G2 | %3
w: I was|glad, * * * * *|I was|
 (G/FG<FE/ D2) | z2 G2 (GD) | E2 C3 B, | A,6 | z2 A,2 B,2 |[M:3/4] C2 C2 D2 | ED E2 F2 | G2 F3 E | %11
w: glad, * * * * *|when they *|said un- to|me,|we will|go, we will|go in- to the|house of the|
 D6 | z2 D2 G2 | E4 (EA,) | A3 G F>G | (FE) (D/^CD/) (ED) | D6 | B,2 (B,/C/D) (CB,) | %18
w: Lord,|we will|go, will *|go in- to the|house * of * * the *|Lord,|our feet * * shall *|
 E2 (=F>E D>)C | B,4 E2- | E2 =F3 G | (=F/ED/ C2) (B,A,) | A,6 | A,2 ^C2 A,2 | D4 (DG,) | G2 E3 A | %26
w: stand in * * thy|gates, O,|* O Je-|ru\- * * * sa\- *|lem;|our feet shall|stand, shall *|stand in thy|
 F4 (G2- | G>F E3/2=F/4E/4 D>C | B,>C D3/2E/4D/4 C>B, | A,>B, B,2 (A,G,) | G,4 G2- | %31
w: gates, O|||* Je- ru- sa\- *|lem, O|
 G>F E3/2=F/4E/4 D>C | B,>C D3/2E/4D/4 C>B, | A,>)B, B,2 (A,G,) | G,6 || %35
w: ||* Je- ru- sa\- *|lem.|
[M:2/2][Q:1/4=72][Q:1/4=72][Q:1/4=72][Q:1/4=72] z8 | z8 | z8 | z A,DA, DE F2 | z G,B,G, DEFD | %40
w: |||For there the tribes go up,|for there the tribes go up, for|
 EFGE A4 | z2 F>F (FE)G>F | (E/D/^C/D/)D (C/B,/) B,2 z2 | z2 z F G/G/GG>F | G4- G3 G || %45
w: there the tribes go up,|ev'n the tribes, * ev'n the|tribes * * * of the * Lord;|to tes- ti- fy un- to|I\- * srael,|
[M:3/4][Q:1/4=90] E2 E2 (DC) |[M:3/4][Q:1/4=90][Q:1/4=90][Q:1/4=90][Q:1/4=90] =F3 G FE | %47
w: and to give *|thanks un- to the|
 (DC) C2 (B,A,) | A,6 | z6 | z6 | D2 D2 (CB,) | E2 E2 A2 | F3 E FD | G4 (GD) | E3 D CB, | %56
w: name * of the *|Lord,|||and to give *|thanks, to give|thanks un- to the|name, give *|thanks un- to the|
 (A,B,) (CB,) (A,G,) | G,4 (GD) | E3 D CB, | (A,B,) (CB,) (A,G,) | G,6 | z6 | z6 | z6 | z6 | %65
w: name * of * the *|Lord, give *|thanks un- to the|name * of * the *|Lord.|||||
[M:3/4] z6 | z6 | z6 | z6 | z6 | z6 | z6 | z6 |[M:3/4] z6 | z6 | z6 | z6 | z6 | z6 | z6 | z6 | %81
w: ||||||||||||||||
[M:3/4] z6 | z6 ||[K:Bb][M:2/2][Q:1/4=72] z2 D2 DD/D/DD/D/ | D>D D2 z2 (GD) | %85
w: ||O pray for the peace of Je-|ru- sa- lem, O *|
[M:2/2][Q:1/4=72][Q:1/4=72][Q:1/4=72][Q:1/4=72] D2 z2 EE/D/ (D2- | DE)D^C D>D D2 || %87
w: pray, pray for the peace|* * of Je- ru- sa- lem;|
[M:3/4][Q:1/4=90] z2 ^F2 F2 | G2 G2 (GD) | %89
w: They shall|pro- sper, shall *|
[M:3/4][Q:1/4=90][Q:1/4=90][Q:1/4=90][Q:1/4=90] E2 E2 E2 | C2 C2 C2 | (F>GF>ED>E | F>E) C3 F | %93
w: pro- sper that|love thee, shall|pro\- * * * * *|* * sper that|
 D2 B,4 | z2 D2 D2 | F2 F2 (FD) | G2 G2 (BA) | ^F2 D2 F2 | (G>^FG<DE<D | C<B,) (C<A,) D2 | %100
w: love thee;|they shall|pro- sper, shall *|pro- sper that *|love thee, shall|pro\- * * * * *|* * sper * that|
 B,2 G,2 ^F2 | (G>^FG<DE<D | C<B,) (C<A,) D2 | B,2 G,2 z2 ||[K:G][M:2/2]"^Chorus" G2 G>G G2 G2 | %105
w: love thee, shall|pro\- * * * * *|* * sper * that|love thee.|Peace be with- in thy|
 G8 |[M:2/2] G2 G>G G2 G2 ||[M:3/4] E4 G2 | =F>F F2 F2 | E3 E E2 | =F2 E2 D2 | ^C4 E2 | %112
w: walls,|peace be with- in thy|walls, and|plen- teous- ness with-|in, with- in|thy pa- la-|ces, and|
[M:3/4] D>D D2 D2 | E3 E D2 | D2 (D2 C>)B, | B,4 D2 | D>D D2 D2 | E3 E D2 | D2 (D2 C>)B, | B,6 || %120
w: plen- teous- ness with-|in, with- in|thy pa\- * la-|ces, and|plen- teous- ness with-|in, with- in|thy pa\- * la-|ces.|
"^Verse" B,>C D2 G,2 | E>G F2 D2 | G3 A G>(F | E3/2) (=F/ E3/2) (D/ C3/2) (B,/ | A,>G, ^F,2 z2 | %125
w: For my bre- thren|and com- pa- nions|sake, I will wish|* thee * pro\- * spe\-|* ri- ty,|
 B,>C D2 G,2 | E>G G2 D2 | G4 G>G | (G2 E2) A2 | A2 E2) =F>G | =F>E D2 F>F | (=F2 B,2) G2 | %132
w: for my bre- thren|and com- pa- nions|sake, I will|wish, * will|wish * thee pro-|spe- ri- ty, I will|wish, * will|
 (G2 ^C2) ^D>E | ^D>^C B,2 z2 ||[M:2/2] B,2 B,>B, B,2 D2 | B,8 ||"^Chorus" G2 G>G G2 G2 | D8 || %138
w: wish * thee pro-|spe- ri- ty.|Peace be with- in thy|walls,|Peace be with- in thy|walls,|
[M:2/2]"^Verse" E2 E>E E2 G2 | E8 ||"^Chorus" G2 G>G G2 G2 ||[M:3/4] E4 G2 | =F>F F2 F2 | %143
w: Peace be with- in thy|walls,|Peace be with- in thy|walls, and|plen- teous- ness with-|
[M:3/4] E3 E E2 | =F2 E2 D2 | ^C4 E2 | D>D D2 D2 | E3 E D2 | D2 (D2 C>)B, | B,4 D2 | %150
w: in, with- in|thy pa- la-|ces, and|plen- teous- ness with-|in, with- in|thy pa\- * la-|ces, and|
 D>D D2[Q:1/4=88] D2 |[Q:1/4=86] E3[Q:1/4=84] E[Q:1/4=82] D2 | %152
w: plen- teous- ness with-|in, with- in|
[Q:1/4=80] D2[Q:1/4=78] (D2[Q:1/4=77] C>)[Q:1/4=76]B, |[Q:1/4=76] B,6 |] %154
w: thy pa\- * la-|ces.|
V:2
[K:C] z6 z2 | z6 | z6 | z6 | z6 | z6 | z6 | z6 |[M:3/4] z6 | z6 | z6 | z6 | z6 | z6 | z6 | %15
w: |||||||||||||||
[M:3/4] z6 | z6 | z6 | z6 | z6 | z6 | z6 |[M:3/4] z6 | z6 | z6 | z6 | z6 | z6 | z6 |[M:3/4] z6 | %30
w: |||||||||||||||
 z6 | z6 | z6 | z6 | z6 ||[K:G][M:2/2][K:treble-8] z8 | z8 | z8 | z4 z AdA | Bc d2 z GcG | %40
w: ||||||||For there the|tribes go up, for there the|
 cd e3 ^cde | f2 d>A B2 B>B | B2 B>^A B3 c | d/d/dd>^c d d2 d | e/e/ee>d e3 e || %45
w: tribes go up, the tribes go|up, ev'n the tribes, ev'n the|tribes of the Lord; to|tes- ti- fy un- to Is- rael, to|te- sti- fy un- to I- srael,|
[M:3/4] c2 c2 (BA) |[M:3/4][K:treble-8] d3 d AA | A2 A2 ^G2 | A6 | ^c2 c2 (BA) | d6 | B2 B2 (AG) | %52
w: and to give *|thanks un- to the|name of the|Lord,|and to give *|thanks,|and to give *|
 c3 (d c)B | A3 c BA | G4 B2 | (c>d c)B AG | (FG) G3 F | G4 (dB) | c3 B AG | (FG) G3 F | G4 G2 | %61
w: thanks, to * give|thanks un- to the|name, give|thanks * * un- to the|name * of the|Lord, give *|thanks un- to the|name * of the|Lord; for|
 d3 c B2 | (cBAB) (cB) | B2 G4 | c4 B2 | e3 e d2 | (c2 B3) c | A2 A2 A2 | d3 c B2 | (e4 ^d>)e | %70
w: there is the|seat * * * of *|judg- ment,|ev'n the|seat of the|house * of|Da- vid, for|there is the|seat * of|
 ^d2 B4 | =d4 ^c2 | ^c3 d c2 | (^c3 d) (ec) | d2 B4 | d4 =c2 | (c2 B>)c B2 | (B2 AB) (cB) | B2 G4 | %79
w: judg- ment,|ev'n the|seat of the|house * of *|Da- vid,|ev'n the|seat * of the|house * * of *|Da- vid,|
 d4 c2 | (c2 B>)c B2 | (B2 AB) (cB) | B2 G4 ||[K:Bb][M:2/2] z8 | z4 z2 B2 | %85
w: ev'n the|seat * of the|house * * of *|Da- vid.||O|
[M:2/2][K:treble-8] A2 z2 B3 B/A/ | G2 G>A ^F>F F2 ||[M:3/4] z2 A2 A2 | d2 d2 d2 | %89
w: pray, pray for the|peace of Je- ru- sa- lem;|They shall|pro- sper, shall|
[M:3/4][K:treble-8] (dG) G2 c2 | A2 A2 A2 | (d>ed>cB>c | d>c) A3 B | B2 F4 | z2 B2 B2 | c2 d2 d2 | %96
w: pro\- * sper that|love thee, shall|pro\- * * * * *|* * sper that|love thee;|they shall|pro- sper, shall|
 (dB) B2 e2 | (eA) A2 A2 | A2 G2 G2 | G3 G ^F2 | G2 G2 c2 | d2 d2 G2 | G3 G ^F2 | G2 G4 || %104
w: pro\- * sper that|love * thee, shall|pro- sper, shall|pro- sper that|love thee, shall|pro- sper, shall|pro- sper that|love thee.|
[K:G][M:2/2] d2 d>d d2 B2 | G8 |[M:2/2][K:treble-8] e2 e>e e2 c2 ||[M:3/4] G4 e2 | c>c c2 d2 | %109
w: Peace be with- in thy|walls,|peace be with- in thy|walls, and|plen- teous- ness with-|
 B3 B (BA) | A2 A2 ^G2 | A4 A2 |[M:3/4][K:treble-8] A>A A2 B2 | c3 c A2 | G2 G2 F2 | G4 G2 | %116
w: in, with- in *|thy pa- la-|ces, and|plen- teous- ness with-|in, with- in|thy pa- la-|ces, and|
 A>A A2 B2 | c3 c A2 | G2 G2 F2 | G6 || z6 | z6 |"^Verse" B>c d2 G2 | c>d c2 A2 | d6 | (d3 c) B2 | %126
w: plen- teous- ness with-|in, with- in|thy pa- la-|ces.|||For my bre- thren|and com- pa- nions|sake,|I * will|
 c>e d4- | d2 (e>f e>)d | ^c>c c2 d2 | d4 d^c | d>d d2 A>A | B4 B2 | B4 B^A | B>B B2 z2 || %134
w: wish, will wish|* thee * * pro-|spe- ri- ty, will|wish thee pro-|spe- ri- ty, I will|wish, will|wish thee pro-|spe- ri- ty.|
[M:2/2] G2 G>G G2 B2 | G8 || d2 d>d d2 B2 | G8 ||[M:2/2][K:treble-8] c2 c>c c2 e2 | c8 || %140
w: Peace be with- in thy|walls,|Peace be with- in thy|walls,|Peace be with- in thy|walls,|
 e2 e>e e2 c2 ||[M:3/4] G4 e2 | c>c c2 d2 |[M:3/4][K:treble-8] B3 B A2 | A2 A2 ^G2 | A4 A2 | %146
w: Peace be with- in thy|walls, and|plen- teous- ness with-|in, with- in|thy pa- la-|ces, and|
 A>A A2 B2 | c3 c A2 | G2 G2 F2 | G4 G2 | A>A A2 B2 | c3 c A2 | G2 G2 F2 | G6 |] %154
w: plen- teous- ness with-|in, with- in|thy pa- la-|ces, and|plen- teous- ness with-|in, with- in|thy pa- la-|ces.|
V:3
[K:C] z6 z2 | z6 | z6 | z6 | z6 | z6 | z6 | z6 |[M:3/4] z6 | z6 | z6 | z6 | z6 | z6 | z6 | %15
w: |||||||||||||||
[M:3/4] z6 | z6 | z6 | z6 | z6 | z6 | z6 |[M:3/4] z6 | z6 | z6 | z6 | z6 | z6 | z6 |[M:3/4] z6 | %30
w: |||||||||||||||
 z6 | z6 | z6 | z6 | z6 ||[K:G][M:2/2][K:bass] z2 z D, G,/G,/G, z G, | A,2 A,>G, B, B,3 | %37
w: |||||Je- ru- sa- lem is|built as a ci- ty|
 z B,^C>D E,/E,/E,F,>G, | F,4 z2 z D, | G,G,,G,A, B,G,A,B, | C4- C (A,B,^C) | D2 D,>D, G,2 E,>E, | %42
w: that is at u- ni- ty in it-|self, For|there the tribes go up, the tribes go|up, * go * *|up, ev'n the tribes, ev'n the|
 F,2 F,,>F,, B,,3 F, | B,/B,/B,B,>^A, B, B,2 G, | C/C/CC>B, C3 C ||[M:3/4] C,2 C,2 =F,2 | %46
w: tribes of the Lord; to|tes- ti- fy un- to Is- rael, to|te- sti- fy un- to I- srael,|and to give|
[M:3/4] D,3 E, D,C, | (B,,A,,) E,2 E,,2 | A,,6 | z6 | F,2 F,2 (E,D,) | G,6 | E,2 C,2 (B,,A,,) | %53
w: thanks un- to the|name * of the|Lord,||and to give *|thanks,|and to give *|
 D,3 E, D,C, | B,,4 G,,2 | C,3 D, E,C, | D,2 D,2 D,,2 | G,,4 G,,2 | C,3 D, E,C, | D,2 D,2 D,,2 | %60
w: thanks un- to the|name, give|thanks un- to the|name of the|Lord, give|thanks un- to the|name of the|
 G,,6- | G,,4 z2 | z6 | z6 | z6 |[M:3/4] z6 | z6 | z6 | z6 | z6 | z6 | z6 | z6 |[M:3/4] z6 | z6 | %75
w: Lord.|||||||||||||||
 z6 | z6 | z6 | z6 | z6 | z6 |[M:3/4] z6 | z6 ||[K:Bb][M:2/2] z8 | z4 z2 G,2 | %85
w: |||||||||O|
[M:2/2] ^F,2 z2 G,3 G,/F,/ | E,2 E,>D, D,>D, D,2 ||[M:3/4] z2 D,2 D,2 | =B,,2 B,,2 B,,2 | %89
w: pray, pray for the|peace of Je- ru- sa- lem;|They shall|pro- sper, shall|
[M:3/4] C,2 (C,D,) (E,C,) | F,2 F,2 F,2 | D,2 D,2 G,2 | E,2 F,2 F,,2 | B,,2 B,,4 | z2 B,2 B,2 | %95
w: pro- sper * that *|love thee, shall|pro- sper, shall|pro- sper that|love thee;|they shall|
 A,2 B,2 B,2 | E,2 (F,E,) (D,C,) | D,2 D,2 D,2 | =B,,2 B,,2 C,2 | D,2 D,2 D,,2 | G,,2 G,,2 A,,2 | %101
w: pro- sper, shall|pro- sper * that *|love thee, shall|pro- sper, shall|pro- sper that|love thee, shall|
 =B,,2 B,,2 C,2 | D,2 D,2 D,,2 | G,,2 G,,4 ||[K:G][M:2/2] G,2 G,>G, G,2 G,,2 | G,,8 | %106
w: pro- sper, shall|pro- sper that|love thee.|Peace be with- in thy|walls,|
[M:2/2] C2 C>C C2 C,2 ||[M:3/4] C,4 C,2 | =F,>F, F,2 D,2 | E,3 ^G, A,2 | D,2 E,3 E, | A,,4 A,2 | %112
w: peace be with- in thy|walls, and|plen- teous- ness with-|in, with- in|thy pa- la-|ces, and|
[M:3/4] F,>F, F,2 G,2 | E,3 C, D,2 | (B,,C,) D,2 D,,2 | G,,4 G,2 | F,>F, F,2 G,2 | E,3 C, D,2 | %118
w: plen- teous- ness with-|in, with- in|thy * pa- la-|ces, and|plen- teous- ness with-|in, with- in|
 (B,,C,) D,2 D,,2 | G,,6 || z6 | z6 | z6 | z6 |"^Verse" F,>G, A,2 D,2 | G,>A, B,2 G,2 | C4 C>C | %127
w: thy * pa- la-|ces.|||||For my bre- thren|and com- pa- nions|sake, I will|
 (C B,3) _B,2 | A,4 =F,2 | G,2 A,2 A,,2 | D,>D, D,2 D,>D, | G,3 (F, E,2) | F,2 F,2 F,,2 | %133
w: wish, * will|wish, will|wish thee pro-|spe- ri- ty, I will|wish, will *|wish thee pro-|
 B,,>B,, B,,2 z2 ||[M:2/2] G,2 G,>G, G,2 G,,2 | G,,8 || G,2 G,>G, G,2 G,,2 | G,,8 || %138
w: spe- ri- ty.|Peace be with- in thy|walls,|Peace be with- in thy|walls,|
[M:2/2] C2 C>C C2 C,2 | C,8 || C2 C>C C2 C,2 ||[M:3/4] C,4 C,2 | =F,>F, F,2 D,2 | %143
w: Peace be with- in thy|walls,|Peace be with- in thy|walls, and|plen- teous- ness with-|
[M:3/4] E,3 ^G, A,2 | D,2 E,3 E, | A,,4 A,2 | F,>F, F,2 G,2 | E,3 C, D,2 | (B,,>C,) D,2 D,,2 | %149
w: in, with- in|thy pa- la-|ces, and|plen- teous- ness with-|in, with- in|thy * pa- la-|
 G,,4 G,2 | F,>F, F,2 G,2 | E,3 C, D,2 | (B,,C,) D,2 D,,2 | G,,6 |] %154
w: ces, and|plen- teous- ness with-|in, with- in|thy * pa- la-|ces.|
V:4
 G,,6 | z2 G,,2 C,2 | B,,>C,B,,A,, G,,2 | D,2 A,2 D2 | B,>CB,>A, G,2 | C2 C,4 | D,2 D,2 E,2 | %7
w: ||6 * * * *||6 * * * *|* 6||
w: |||||||
 F,2 F,2 G,2 |[M:3/4] A,2 A,,2 B,,2 | C,2 C,2 A,,2 | E,2 E,2 F,2 | G,2 G,2 A,2 | B,3 A,B,G, | %13
w: 6 * *|||5 6 *||6 * * *|
w: ||||||
 C>DC>B,A,>G, | F,>G,F,>E, D,2 | G,,2 A,,4 | D,2 F,2 D,2 | G,4 G,,2 | C,2 D,4 | E,4 C,2 | D,6 | %21
w: |6 * * * *|6 *||||* 6||
w: ||5 *||||||
 E,2 E,,4 | A,,2 ^C,2 A,,2 | A,4 z2 | F,4 G,2 | E,2 C,2 A,,2 | D,4 B,,2 | C,4 D,2 | E,2 F,2 G,2 | %29
w: 6 *|||6 *||* 6|||
w: 4 *||||||||
 D,2 D,,4 | G,,3 A,,B,,G,, | C,4 D,2 | E,2 B,,2 C,2 | D,2 D,,4 | G,,6 ||[M:2/2] G,,8- | %36
w: * 6~~~5||||* 6~~~5|||
w: * 4~~~3||||* 4~~~3|||
 G,,2 F,,2 G,,4- | G,,3 F,, E,,4 | D,,8 | G,,4- G,,G, A,B, | C4- CA,B,^C | D2 D,2 G,2 E,2 | %42
w: 2 * *|||* * * 6 *|* 6 * * *|* * 7~~~~6 *|
w: ||||||
 F,2 F,,2 B,,4 | B,3 ^A, B,3 G, | C3 B, C4 ||[M:3/4] C,4 =F,2 |[M:3/4] D,3 E,D,C, | %47
w: 4 3 *|||||
w: |||||
 (B,,A,,) E,2 E,,2 | A,,6 | A,4 G,2 | F,4 D,2 | G,6 | E,2 C,2 A,,2 | D,3 E,D,C, | B,,4 G,,2 | %55
w: * * 6 5|||6 *||6 * *||6 *|
w: * * 4 *||||||||
 C,3 D, E,C, | D,2 D,,4 | G,,6 | C,3 D, E,C, | D,2 D,,4 | G,,6- | G,,4 G,2- | G,4 F,2 | G,4 F,2 | %64
w: * * 6 *|* 6~~~~~~~5||* * 6 *|* 6~~~~~~~~~~~5|||4 *||
w: |* 4~~~~~~~3|||* 4~~~~~~~~~~~3|||2 *||
 E,4 D,2 | C,4 B,,2 | A,,2 G,,4 | D,6 | B,,4 E,2 | C,2 A,,4 | B,,6 | B,,4 ^C,2 | D,4 E,2 | %73
w: 6 6|6~~~5 6|6 *|||||* 7|6 6|
w: ||||||||* 5|
 F,2 F,,4 | B,,4 A,,2 | G,,4 A,,2 | B,,4 C,2 | D,2 D,,4 | G,,6 | G,,4 A,,2 | B,,4 C,2 | D,2 D,,4 | %82
w: 5 3||* 3|9~~~8 7|6 5|||9~~~~~~8 7|6 5|
w: 4 *|||7~~~6 *|4 3|||7~~~~~~6 *|4 3|
 G,,6 ||[K:Bb][M:2/2] G,,8- | G,,6 G,2 |[M:2/2] ^F,4 G,3 F, | E,4 D,4 ||[M:3/4] z2 D,2 D,2 | %88
w: |||6 6~~~~~~~5 6|5+ *||
w: ||||||
 =B,,4 G,,2 |[M:3/4] C,4 C,2 | F,4 E,2 | D,4 G,2 | E,2 F,2 F,,2 | B,,6 | z2 B,2 B,2 | A,2 B,2 B,2 | %96
w: 6 *|||||||6 * *|
w: ||||||||
 E,4 C,2 | D,4 C,2 | =B,,4 C,2 | D,2 D,,4 | G,,4 A,,2 | =B,,4 C,2 | D,2 D,,4 | G,,6 || %104
w: * 6||6 *|5 5|* 6+|6 *|6 5||
w: |||4 *|||4 *||
[K:G][M:2/2] G,2 G,>G, G,2 G,,2 | G,,8 |[M:2/2] C2 C>C C2 C,2 ||[M:3/4] C,4 C,2 | =F,4 D,2 | %109
w: |||||
w: |||||
 E,3 ^G, A,2 | D,2 E,2 E,,2 | A,,4 A,2 |[M:3/4] F,4 G,2 | E,3 C, D,2 | B,,C, D,2 D,,2 | G,,4 G,2 | %116
w: |* 6 5||6 *|6 * *|6 * 6 5||
w: |* 4 *||||* * 4 3||
 F,4 G,2 | E,3 C, D,2 | B,,C, D,2 D,,2 | G,,6 || G,3 A, B,2 | C>B, A,2 D2 | B,2 G,4 | C3 B, A,>G, | %124
w: 6 *|6 * *|6 * 6 5||* * 6|* * 6 *|6 *||
w: ||* * 4 3||||||
 F,2 D,4 | G,6 | C2 C4 | B,4 _B,2 | A,4 =F,2 | G,2 A,2 A,,2 | D,4 D,2 | G,4 E,2 | F,2 F,,4 | %133
w: 6 *||* 2|6 *|7 5|6 4 *||7~~~~~~6 *|4 *|
w: |||||5 * *||||
 B,,6 ||[M:2/2] G,2 G,>G, G,2 G,,2 | G,,8 || G,2 G,>G, G,2 G,,2 | G,,8 ||[M:2/2] C2 C>C C2 C,2 | %139
w: ||||||
w: ||||||
 C,8 || C2 C>C C2 C,2 ||[M:3/4] C,4 C,2 | =F,4 D,2 |[M:3/4] E,3 ^G, A,2 | D,2 E,2 E,,2 | A,,4 A,2 | %146
w: |||||* 6 5||
w: |||||* 4 *||
 F,4 G,2 | E,3 C, D,2 | B,,C, D,2 D,,2 | G,,4 G,2 | F,4 G,2 | E,3 C, D,2 | B,,C, D,2 D,,2 | G,,6 |] %154
w: 6 *|6 * *|6 * 6 5||6 *|6 * *|6 * 6 5||
w: ||* * 4 3||||* * 4 3||

